image/hero-images/sale.svg

<svg width="148" height="55" viewBox="0 0 148 55" fill="none" xmlns="http://www.w3.org/2000/svg">
<rect x="0.0615234" y="0.255127" width="147.145" height="54.5362" rx="27.2681" fill="#70C217"/>
<path d="M53.6812 31.5919L56.7966 21.2544H59.9498L55.1634 35H52.2085L47.4409 21.2544H50.5847L53.6812 31.5919Z" fill="white"/>
<path d="M71.8187 30.157V35H68.9865V21.2544H74.3488C75.3809 21.2544 76.2872 21.4432 77.0677 21.8208C77.8544 22.1985 78.4586 22.7366 78.8803 23.4352C79.302 24.1275 79.5128 24.9174 79.5128 25.8048C79.5128 27.1517 79.0502 28.2153 78.125 28.9958C77.2061 29.7699 75.9316 30.157 74.3016 30.157H71.8187ZM71.8187 27.8629H74.3488C75.0977 27.8629 75.6673 27.6866 76.0575 27.3342C76.454 26.9817 76.6523 26.4782 76.6523 25.8237C76.6523 25.1503 76.454 24.6058 76.0575 24.1904C75.661 23.7751 75.1135 23.5611 74.4148 23.5485H71.8187V27.8629Z" fill="white"/>
<path d="M100.379 35H97.5464L92.0331 25.9559V35H89.2008V21.2544H92.0331L97.5559 30.3175V21.2544H100.379V35Z" fill="white"/>
</svg>

<svg fill="none" height="55" width="148" xmlns="http://www.w3.org/2000/svg"><rect fill="#70c217" height="54.536" rx="27.268" width="147.145" x=".062" y=".255"/><g fill="#fff"><path d="M53.681 31.592l3.116-10.338h3.153L55.163 35h-2.955l-4.767-13.746h3.144zM71.819 30.157V35h-2.832V21.254h5.362c1.032 0 1.938.19 2.719.567.786.378 1.39.916 1.812 1.614.422.693.633 1.482.633 2.37 0 1.347-.463 2.41-1.388 3.19-.919.775-2.193 1.162-3.823 1.162zm0-2.294h2.53c.749 0 1.318-.176 1.709-.529.396-.352.594-.856.594-1.51 0-.674-.198-1.218-.594-1.634-.397-.415-.945-.629-1.643-.642h-2.596zM100.379 35h-2.833l-5.513-9.044V35h-2.832V21.254h2.832l5.523 9.063v-9.063h2.823z"/></g></svg>
